ExpEYES17/UserManual/fr/rst/exp/schematics/opamp-int.svg

<?xml version="1.0" encoding="UTF-8" standalone="no"?>
<svg
   xmlns:dc="http://purl.org/dc/elements/1.1/"
   xmlns:cc="http://creativecommons.org/ns#"
   xmlns:rdf="http://www.w3.org/1999/02/22-rdf-syntax-ns#"
   xmlns:svg="http://www.w3.org/2000/svg"
   xmlns="http://www.w3.org/2000/svg"
   xmlns:sodipodi="http://sodipodi.sourceforge.net/DTD/sodipodi-0.dtd"
   xmlns:inkscape="http://www.inkscape.org/namespaces/inkscape"
   version="1.1"
   id="opamp-int"
   width="100%"
   height="100%"
   viewBox="-6 -6 774 614"
   sodipodi:docname="opamp-int.svg"
   inkscape:version="0.92.2 (5c3e80d, 2017-08-06)"
   inkscape:export-filename="/home/georgesk/developpement/expeyes/expeyes/ExpEYES17/UserManual/fr/rst/exp/schematics/opamp-int.png"
   inkscape:export-xdpi="37.402596"
   inkscape:export-ydpi="37.402596">
  <metadata
     id="metadata185">
    <rdf:RDF>
      <cc:Work
         rdf:about="">
        <dc:format>image/svg+xml</dc:format>
        <dc:type
           rdf:resource="http://purl.org/dc/dcmitype/StillImage" />
        <dc:title></dc:title>
      </cc:Work>
    </rdf:RDF>
  </metadata>
  <defs
     id="defs183" />
  <sodipodi:namedview
     pagecolor="#ffffff"
     bordercolor="#666666"
     borderopacity="1"
     objecttolerance="10"
     gridtolerance="10"
     guidetolerance="10"
     inkscape:pageopacity="0"
     inkscape:pageshadow="2"
     inkscape:window-width="1668"
     inkscape:window-height="1013"
     id="namedview181"
     showgrid="false"
     inkscape:zoom="1.2176557"
     inkscape:cx="388.6425"
     inkscape:cy="307"
     inkscape:window-x="0"
     inkscape:window-y="0"
     inkscape:window-maximized="1"
     inkscape:current-layer="opamp-int" />
  <desc
     id="desc2">
XCircuit Version 3.7
File &quot;opamp-int.ps&quot; Page 1
</desc>
  <path
     style="fill:none;stroke:#000000;stroke-width:2;stroke-linecap:round;stroke-linejoin:bevel"
     inkscape:connector-curvature="0"
     id="path4"
     d="M 368,464 V 304 l 160,80 z" />
  <text
     font-size="40"
     id="text8"
     style="font-size:40px;font-family:Times;fill:#000000;stroke:none"
     x="387"
     y="342">
    <tspan
       x="375"
       y="348"
       id="tspan6">−</tspan>
  </text>
  <text
     font-size="40"
     id="text14"
     style="font-size:40px;font-family:Times;fill:#000000;stroke:none"
     x="387"
     y="434">
    <tspan
       x="376"
       y="444"
       id="tspan12">+</tspan>
  </text>
  <path
     style="fill:none;stroke:#000000;stroke-width:2;stroke-linecap:round;stroke-linejoin:bevel"
     inkscape:connector-curvature="0"
     id="path18"
     d="M 512,176 H 484" />
  <path
     style="fill:none;stroke:#000000;stroke-width:2;stroke-linecap:round;stroke-linejoin:bevel"
     inkscape:connector-curvature="0"
     id="path20"
     d="m 384,176 h 28" />
  <path
     style="fill:none;stroke:#000000;stroke-width:2;stroke-linecap:round;stroke-linejoin:bevel"
     inkscape:connector-curvature="0"
     id="path22"
     d="m 412,176 6,14 12,-28 12,28 12,-28 12,28 12,-28 6,14" />
  <path
     style="fill:none;stroke:#000000;stroke-width:2;stroke-linecap:round;stroke-linejoin:bevel"
     inkscape:connector-curvature="0"
     id="path24"
     d="M 432,336 V 272" />
  <path
     style="fill:none;stroke:#000000;stroke-width:2;stroke-linecap:round;stroke-linejoin:bevel"
     inkscape:connector-curvature="0"
     id="path26"
     d="m 432,432 v 80" />
  <path
     style="fill:none;stroke:#000000;stroke-width:2;stroke-linecap:round;stroke-linejoin:bevel"
     inkscape:connector-curvature="0"
     id="path28"
     d="m 528,384 h 64 V 176 h -80" />
  <path
     style="fill:none;stroke:#000000;stroke-width:2;stroke-linecap:round;stroke-linejoin:bevel"
     inkscape:connector-curvature="0"
     id="path30"
     d="m 384,176 h -80 v 160 h 64" />
  <path
     style="fill:none;stroke:#000000;stroke-width:2;stroke-linecap:round;stroke-linejoin:bevel"
     inkscape:connector-curvature="0"
     id="path32"
     d="M 304,336 H 276" />
  <path
     style="fill:none;stroke:#000000;stroke-width:2;stroke-linecap:round;stroke-linejoin:bevel"
     inkscape:connector-curvature="0"
     id="path34"
     d="m 176,336 h 28" />
  <path
     style="fill:none;stroke:#000000;stroke-width:2;stroke-linecap:round;stroke-linejoin:bevel"
     inkscape:connector-curvature="0"
     id="path36"
     d="m 204,336 6,14 12,-28 12,28 12,-28 12,28 12,-28 6,14" />
  <path
     style="fill:none;stroke:#000000;stroke-width:2;stroke-linecap:round;stroke-linejoin:bevel"
     inkscape:connector-curvature="0"
     id="path38"
     d="M 176,336 H 128" />
  <text
     font-size="40"
     id="text42"
     style="font-size:40px;font-family:Helvetica;fill:#000000;stroke:none"
     x="48"
     y="336">
    <tspan
       x="48"
       y="336"
       id="tspan40" />
  </text>
  <text
     font-size="40"
     id="text48"
     style="font-size:40px;font-family:Helvetica;fill:#000000;stroke:none"
     x="54.903439"
     y="470.57999">
    <tspan
       x="54.903439"
       y="470.57999"
       id="tspan46">WG</tspan>
  </text>
  <path
     style="fill:none;stroke:#000000;stroke-width:2;stroke-linecap:round;stroke-linejoin:bevel"
     inkscape:connector-curvature="0"
     id="path52"
     d="m 48,176 v 48 h 80 v -48 z" />
  <path
     style="fill:none;stroke:#000000;stroke-width:2;stroke-linecap:round;stroke-linejoin:bevel"
     inkscape:connector-curvature="0"
     id="path54"
     d="m 48,432 v 48 h 80 v -48 z" />
  <text
     font-size="40"
     id="text58"
     style="font-size:40px;font-family:Helvetica;fill:#000000;stroke:none"
     x="67.360626"
     y="214.58">
    <tspan
       x="67.360626"
       y="214.58"
       id="tspan56">A1</tspan>
  </text>
  <path
     style="fill:none;stroke:#000000;stroke-width:2;stroke-linecap:round;stroke-linejoin:bevel"
     inkscape:connector-curvature="0"
     id="path62"
     d="m 640,528 v 48 h 80 v -48 z" />
  <text
     font-size="40"
     id="text66"
     style="font-size:40px;font-family:Helvetica;fill:#000000;stroke:none"
     x="656.08063"
     y="566.58002">
    <tspan
       x="656.08063"
       y="566.58002"
       id="tspan64">A2</tspan>
  </text>
  <path
     style="fill:none;stroke:#000000;stroke-width:2;stroke-linecap:round;stroke-linejoin:bevel"
     inkscape:connector-curvature="0"
     id="path70"
     d="m 592,384 h 48" />
  <path
     style="fill:none;stroke:#000000;stroke-width:2;stroke-linecap:round;stroke-linejoin:bevel"
     inkscape:connector-curvature="0"
     id="path72"
     d="M 368,432 H 336" />
  <path
     style="fill:none;stroke:#000000;stroke-width:2;stroke-linecap:round;stroke-linejoin:bevel"
     inkscape:connector-curvature="0"
     id="path74"
     d="m 192,528 v 48 h 96 v -48 z" />
  <text
     font-size="40"
     id="text78"
     style="font-size:40px;font-family:Helvetica;fill:#000000;stroke:none"
     x="195.78"
     y="566.58002">
    <tspan
       x="195.78"
       y="566.58002"
       id="tspan76">GND</tspan>
  </text>
  <text
     font-size="40"
     id="text84"
     style="font-size:40px;font-family:Helvetica;fill:#000000;stroke:none"
     x="392.18375"
     y="148.10625">
    <tspan
       x="392.18375"
       y="148.10625"
       id="tspan82">10 kΩ</tspan>
  </text>
  <text
     font-size="40"
     id="text90"
     style="font-size:40px;font-family:Helvetica;fill:#000000;stroke:none"
     x="196.89874"
     y="308.10626">
    <tspan
       x="196.89874"
       y="308.10626"
       id="tspan88">1 kΩ</tspan>
  </text>
  <text
     font-size="40"
     id="text96"
     style="font-size:40px;font-family:Helvetica;fill:#000000;stroke:none"
     x="654.0603"
     y="246.58">
    <tspan
       x="654.0603"
       y="246.58"
       id="tspan94">+V</tspan>
  </text>
  <text
     font-size="40"
     id="text102"
     style="font-size:40px;font-family:Helvetica;fill:#000000;stroke:none"
     x="524.39874"
     y="566.58002">
    <tspan
       x="524.39874"
       y="566.58002"
       id="tspan100">-V</tspan>
  </text>
  <text
     font-size="40"
     id="text108"
     style="font-size:40px;font-family:Helvetica;fill:#000000;stroke:none"
     x="336"
     y="320">
    <tspan
       x="336"
       y="320"
       id="tspan106">2</tspan>
  </text>
  <text
     font-size="40"
     id="text114"
     style="font-size:40px;font-family:Helvetica;fill:#000000;stroke:none"
     x="336"
     y="416">
    <tspan
       x="336"
       y="416"
       id="tspan112">3</tspan>
  </text>
  <text
     font-size="40"
     id="text120"
     style="font-size:40px;font-family:Helvetica;fill:#000000;stroke:none"
     x="544"
     y="368">
    <tspan
       x="544"
       y="368"
       id="tspan118">6</tspan>
  </text>
  <text
     font-size="40"
     id="text126"
     style="font-size:40px;font-family:Helvetica;fill:#000000;stroke:none"
     x="448"
     y="304">
    <tspan
       x="448"
       y="304"
       id="tspan124">7</tspan>
  </text>
  <text
     font-size="40"
     id="text132"
     style="font-size:40px;font-family:Helvetica;fill:#000000;stroke:none"
     x="448"
     y="464">
    <tspan
       x="448"
       y="464"
       id="tspan130">4</tspan>
  </text>
  <path
     style="fill:none;stroke:#000000;stroke-width:2;stroke-linecap:round;stroke-linejoin:bevel"
     inkscape:connector-curvature="0"
     id="path136"
     d="m 640,208 v 48 h 80 v -48 z" />
  <path
     style="fill:none;stroke:#000000;stroke-width:2;stroke-linecap:round;stroke-linejoin:bevel"
     inkscape:connector-curvature="0"
     id="path138"
     d="m 512,528 v 48 h 64 v -48 z" />
  <circle
     style="fill:none;stroke:#000000;stroke-width:2;stroke-linecap:round;stroke-linejoin:bevel"
     r="16"
     id="ellipse140"
     cy="336"
     cx="112" />
  <circle
     style="fill:none;stroke:#000000;stroke-width:2;stroke-linecap:round;stroke-linejoin:bevel"
     r="16"
     id="ellipse142"
     cy="432"
     cx="256" />
  <circle
     style="fill:none;stroke:#000000;stroke-width:2;stroke-linecap:round;stroke-linejoin:bevel"
     r="16"
     id="ellipse144"
     cy="384"
     cx="656" />
  <circle
     style="fill:none;stroke:#000000;stroke-width:2;stroke-linecap:round;stroke-linejoin:bevel"
     r="16"
     id="ellipse146"
     cy="528"
     cx="432" />
  <circle
     style="fill:none;stroke:#000000;stroke-width:2;stroke-linecap:round;stroke-linejoin:bevel"
     r="16"
     id="ellipse148"
     cy="256"
     cx="432" />
  <path
     style="fill:none;stroke:#000000;stroke-width:2;stroke-linecap:round;stroke-linejoin:bevel"
     inkscape:connector-curvature="0"
     id="path150"
     d="M 336,432 H 272" />
  <path
     style="fill:none;stroke:#000000;stroke-width:2;stroke-linecap:round;stroke-linejoin:bevel"
     inkscape:connector-curvature="0"
     id="path152"
     d="m 688,528 c 1,0 48,-112 -32,-128" />
  <path
     style="fill:none;stroke:#000000;stroke-width:2;stroke-linecap:round;stroke-linejoin:bevel"
     inkscape:connector-curvature="0"
     id="path154"
     d="m 448,528 c 1,0 16,48 64,32" />
  <path
     style="fill:none;stroke:#000000;stroke-width:2;stroke-linecap:round;stroke-linejoin:bevel"
     inkscape:connector-curvature="0"
     id="path156"
     d="m 240,528 c 1,0 -48,-64 16,-80" />
  <path
     style="fill:none;stroke:#000000;stroke-width:2;stroke-linecap:round;stroke-linejoin:bevel"
     inkscape:connector-curvature="0"
     id="path158"
     d="m 96,432 c 1,0 -48,-48 16,-80" />
  <path
     style="fill:none;stroke:#000000;stroke-width:2;stroke-linecap:round;stroke-linejoin:bevel"
     inkscape:connector-curvature="0"
     id="path160"
     d="m 112,320 c 1,0 -80,-64 -32,-96" />
  <path
     style="fill:none;stroke:#000000;stroke-width:2;stroke-linecap:round;stroke-linejoin:bevel"
     inkscape:connector-curvature="0"
     id="path162"
     d="m 640,224 c 1,0 -112,-32 -192,32" />
  <path
     style="fill:none;stroke:#000000;stroke-width:2;stroke-linecap:round;stroke-linejoin:bevel"
     inkscape:connector-curvature="0"
     id="path164"
     d="m 368,48 h 58" />
  <path
     style="fill:none;stroke:#000000;stroke-width:2;stroke-linecap:round;stroke-linejoin:bevel"
     inkscape:connector-curvature="0"
     id="path166"
     d="M 496,48 H 438" />
  <path
     style="fill:none;stroke:#000000;stroke-width:2;stroke-linecap:round;stroke-linejoin:bevel"
     inkscape:connector-curvature="0"
     id="path168"
     d="M 438,16 V 80" />
  <path
     style="fill:none;stroke:#000000;stroke-width:2;stroke-linecap:round;stroke-linejoin:bevel"
     inkscape:connector-curvature="0"
     id="path170"
     d="M 426,16 V 80" />
  <path
     style="fill:none;stroke:#000000;stroke-width:2;stroke-linecap:round;stroke-linejoin:bevel"
     inkscape:connector-curvature="0"
     id="path172"
     d="m 496,48 96,128" />
  <path
     style="fill:none;stroke:#000000;stroke-width:2;stroke-linecap:round;stroke-linejoin:bevel"
     inkscape:connector-curvature="0"
     id="path174"
     d="M 368,48 304,176" />
  <path
     style="fill:none;stroke:#000000;stroke-width:2;stroke-linecap:round;stroke-linejoin:bevel"
     inkscape:connector-curvature="0"
     id="path176"
     d="M 0,0 V 608 H 768 V 0 Z" />
</svg>

<svg xmlns="http://www.w3.org/2000/svg"
   xmlns:xlink="http://www.w3.org/1999/xlink"
   version="1.1"
   id="opamp-int" width="100%" height="100%"  viewBox="-6 -6 774 614">
<desc>
XCircuit Version 3.7
File "opamp-int.ps" Page 1
</desc>
<g stroke="black">
<path d="M368,464 L368,304 528,384 z" fill="none" stroke-width="2" stroke-linejoin="bevel" stroke-linecap="round" stroke="#000000" />
<g transform="matrix(   1    0   -0    1 387 342)" fill="#000000" >
<text stroke="none" font-family="Times" font-size="40" ><tspan x="-12" y="6">&#8722;</tspan>
</text></g>
<g transform="matrix(   1    0   -0    1 387 434)" fill="#000000" >
<text stroke="none" font-family="Times" font-size="40" ><tspan x="-11" y="10">+</tspan>
</text></g>
<path d="M512,176 L484,176 " fill="none" stroke-width="2" stroke-linejoin="bevel" stroke-linecap="round" stroke="#000000" />
<path d="M384,176 L412,176 " fill="none" stroke-width="2" stroke-linejoin="bevel" stroke-linecap="round" stroke="#000000" />
<path d="M412,176 L418,190 430,162 442,190 454,162 466,190 478,162 484,176 " fill="none" stroke-width="2" stroke-linejoin="bevel" stroke-linecap="round" stroke="#000000" />
<path d="M432,336 L432,272 " fill="none" stroke-width="2" stroke-linejoin="bevel" stroke-linecap="round" stroke="#000000" />
<path d="M432,432 L432,512 " fill="none" stroke-width="2" stroke-linejoin="bevel" stroke-linecap="round" stroke="#000000" />
<path d="M528,384 L592,384 592,176 512,176 " fill="none" stroke-width="2" stroke-linejoin="bevel" stroke-linecap="round" stroke="#000000" />
<path d="M384,176 L304,176 304,336 368,336 " fill="none" stroke-width="2" stroke-linejoin="bevel" stroke-linecap="round" stroke="#000000" />
<path d="M304,336 L276,336 " fill="none" stroke-width="2" stroke-linejoin="bevel" stroke-linecap="round" stroke="#000000" />
<path d="M176,336 L204,336 " fill="none" stroke-width="2" stroke-linejoin="bevel" stroke-linecap="round" stroke="#000000" />
<path d="M204,336 L210,350 222,322 234,350 246,322 258,350 270,322 276,336 " fill="none" stroke-width="2" stroke-linejoin="bevel" stroke-linecap="round" stroke="#000000" />
<path d="M176,336 L128,336 " fill="none" stroke-width="2" stroke-linejoin="bevel" stroke-linecap="round" stroke="#000000" />
<g transform="matrix(   1    0   -0    1  48 336)" fill="#000000" >
<text stroke="none" font-family="Helvetica" font-size="40" ><tspan x="0" y="0"></tspan>
</text></g>
<g transform="matrix(   1    0   -0    1  48 464)" fill="#000000" >
<text stroke="none" font-family="Helvetica" font-size="40" ><tspan x="0" y="0">WG</tspan>
</text></g>
<path d="M48,176 L48,224 128,224 128,176 z" fill="none" stroke-width="2" stroke-linejoin="bevel" stroke-linecap="round" stroke="#000000" />
<path d="M48,432 L48,480 128,480 128,432 z" fill="none" stroke-width="2" stroke-linejoin="bevel" stroke-linecap="round" stroke="#000000" />
<g transform="matrix(   1    0   -0    1  64 208)" fill="#000000" >
<text stroke="none" font-family="Helvetica" font-size="40" ><tspan x="0" y="0">A1</tspan>
</text></g>
<path d="M640,528 L640,576 720,576 720,528 z" fill="none" stroke-width="2" stroke-linejoin="bevel" stroke-linecap="round" stroke="#000000" />
<g transform="matrix(   1    0   -0    1 656 560)" fill="#000000" >
<text stroke="none" font-family="Helvetica" font-size="40" ><tspan x="0" y="0">A2</tspan>
</text></g>
<path d="M592,384 L640,384 " fill="none" stroke-width="2" stroke-linejoin="bevel" stroke-linecap="round" stroke="#000000" />
<path d="M368,432 L336,432 " fill="none" stroke-width="2" stroke-linejoin="bevel" stroke-linecap="round" stroke="#000000" />
<path d="M192,528 L192,576 288,576 288,528 z" fill="none" stroke-width="2" stroke-linejoin="bevel" stroke-linecap="round" stroke="#000000" />
<g transform="matrix(   1    0   -0    1 192 560)" fill="#000000" >
<text stroke="none" font-family="Helvetica" font-size="40" ><tspan x="0" y="0">GND</tspan>
</text></g>
<g transform="matrix(   1    0   -0    1 416 144)" fill="#000000" >
<text stroke="none" font-family="Helvetica" font-size="40" ><tspan x="0" y="0">10K</tspan>
</text></g>
<g transform="matrix(   1    0   -0    1 224 304)" fill="#000000" >
<text stroke="none" font-family="Helvetica" font-size="40" ><tspan x="0" y="0">1K</tspan>
</text></g>
<g transform="matrix(   1    0   -0    1 656 240)" fill="#000000" >
<text stroke="none" font-family="Helvetica" font-size="40" ><tspan x="0" y="0">+V</tspan>
</text></g>
<g transform="matrix(   1    0   -0    1 512 560)" fill="#000000" >
<text stroke="none" font-family="Helvetica" font-size="40" ><tspan x="0" y="0">-V</tspan>
</text></g>
<g transform="matrix(   1    0   -0    1 336 320)" fill="#000000" >
<text stroke="none" font-family="Helvetica" font-size="40" ><tspan x="0" y="0">2</tspan>
</text></g>
<g transform="matrix(   1    0   -0    1 336 416)" fill="#000000" >
<text stroke="none" font-family="Helvetica" font-size="40" ><tspan x="0" y="0">3</tspan>
</text></g>
<g transform="matrix(   1    0   -0    1 544 368)" fill="#000000" >
<text stroke="none" font-family="Helvetica" font-size="40" ><tspan x="0" y="0">6</tspan>
</text></g>
<g transform="matrix(   1    0   -0    1 448 304)" fill="#000000" >
<text stroke="none" font-family="Helvetica" font-size="40" ><tspan x="0" y="0">7</tspan>
</text></g>
<g transform="matrix(   1    0   -0    1 448 464)" fill="#000000" >
<text stroke="none" font-family="Helvetica" font-size="40" ><tspan x="0" y="0">4</tspan>
</text></g>
<path d="M640,208 L640,256 720,256 720,208 z" fill="none" stroke-width="2" stroke-linejoin="bevel" stroke-linecap="round" stroke="#000000" />
<path d="M512,528 L512,576 576,576 576,528 z" fill="none" stroke-width="2" stroke-linejoin="bevel" stroke-linecap="round" stroke="#000000" />
<ellipse cx="112" cy="336" rx="16" ry="16" fill="none" stroke-width="2" stroke-linejoin="bevel" stroke-linecap="round" stroke="#000000" />
<ellipse cx="256" cy="432" rx="16" ry="16" fill="none" stroke-width="2" stroke-linejoin="bevel" stroke-linecap="round" stroke="#000000" />
<ellipse cx="656" cy="384" rx="16" ry="16" fill="none" stroke-width="2" stroke-linejoin="bevel" stroke-linecap="round" stroke="#000000" />
<ellipse cx="432" cy="528" rx="16" ry="16" fill="none" stroke-width="2" stroke-linejoin="bevel" stroke-linecap="round" stroke="#000000" />
<ellipse cx="432" cy="256" rx="16" ry="16" fill="none" stroke-width="2" stroke-linejoin="bevel" stroke-linecap="round" stroke="#000000" />
<path d="M336,432 L272,432 " fill="none" stroke-width="2" stroke-linejoin="bevel" stroke-linecap="round" stroke="#000000" />
<path d="M688,528 C689,528 736,416 656,400 " fill="none" stroke-width="2" stroke-linejoin="bevel" stroke-linecap="round" stroke="#000000" />
<path d="M448,528 C449,528 464,576 512,560 " fill="none" stroke-width="2" stroke-linejoin="bevel" stroke-linecap="round" stroke="#000000" />
<path d="M240,528 C241,528 192,464 256,448 " fill="none" stroke-width="2" stroke-linejoin="bevel" stroke-linecap="round" stroke="#000000" />
<path d="M96,432 C97,432 48,384 112,352 " fill="none" stroke-width="2" stroke-linejoin="bevel" stroke-linecap="round" stroke="#000000" />
<path d="M112,320 C113,320 32,256 80,224 " fill="none" stroke-width="2" stroke-linejoin="bevel" stroke-linecap="round" stroke="#000000" />
<path d="M640,224 C641,224 528,192 448,256 " fill="none" stroke-width="2" stroke-linejoin="bevel" stroke-linecap="round" stroke="#000000" />
<path d="M368,48 L426,48 " fill="none" stroke-width="2" stroke-linejoin="bevel" stroke-linecap="round" stroke="#000000" />
<path d="M496,48 L438,48 " fill="none" stroke-width="2" stroke-linejoin="bevel" stroke-linecap="round" stroke="#000000" />
<path d="M438,16 L438,80 " fill="none" stroke-width="2" stroke-linejoin="bevel" stroke-linecap="round" stroke="#000000" />
<path d="M426,16 L426,80 " fill="none" stroke-width="2" stroke-linejoin="bevel" stroke-linecap="round" stroke="#000000" />
<path d="M496,48 L592,176 " fill="none" stroke-width="2" stroke-linejoin="bevel" stroke-linecap="round" stroke="#000000" />
<path d="M368,48 L304,176 " fill="none" stroke-width="2" stroke-linejoin="bevel" stroke-linecap="round" stroke="#000000" />
<path d="M0,0 L0,608 768,608 768,0 z" fill="none" stroke-width="2" stroke-linejoin="bevel" stroke-linecap="round" stroke="#000000" />
</g>
</svg>
